;START_OF_HEADER
;HEADER_VERSION:0.1
;FLAVOR:Griffin
;GENERATOR.NAME:Cura_SteamEngine
;GENERATOR.VERSION:5.3.0
;GENERATOR.BUILD_DATE:2023-03-07
;TARGET_MACHINE.NAME:Ultimaker S3
;EXTRUDER_TRAIN.0.INITIAL_TEMPERATURE:200
;EXTRUDER_TRAIN.0.MATERIAL.VOLUME_USED:15018
;EXTRUDER_TRAIN.0.MATERIAL.GUID:506c9f0d-e3aa-4bd4-b2d2-23e2425b1aa9
;EXTRUDER_TRAIN.0.NOZZLE.DIAMETER:0.4
;EXTRUDER_TRAIN.0.NOZZLE.NAME:AA 0.4
;BUILD_PLATE.INITIAL_TEMPERATURE:60
;PRINT.TIME:9148
;PRINT.GROUPS:1
;PRINT.SIZE.MIN.X:102.057
;PRINT.SIZE.MIN.Y:28.092
;PRINT.SIZE.MIN.Z:0.2
;PRINT.SIZE.MAX.X:186.994
;PRINT.SIZE.MAX.Y:124.028
;PRINT.SIZE.MAX.Z:15.2
;SLICE_UUID:9112073d-9b88-4752-9252-4bb08b34f9fc
;END_OF_HEADER
;Generated with Cura_SteamEngine 5.3.0
T0
M82 ;absolute extrusion mode

G92 E0
M109 S200
G280 S1
G0 Z20.001
G1 F2700 E-6.5
;LAYER_COUNT:101
;LAYER:0
M106 S255
M204 S1000
M205 X20 Y20
G1 F600 Z2.2
G0 F9000 X180.992 Y118.404 Z2.2
;TYPE:SKIRT
G1 F600 Z0.2
G1 F2700 E0
G1 F1035 X183.699 Y117.505 E0.03577
G1 X185.587 Y115.674 E0.06875
G1 X186.588 Y114.15 E0.09162
G1 X186.994 Y112.313 E0.11521
G1 X186.994 Y82.653 E0.48716
G1 X186.089 Y79.881 E0.52372
G1 X184.322 Y78.06 E0.55554
G1 X182.815 Y77.035 E0.5784
G1 X180.884 Y76.598 E0.60323
G1 X172.127 Y76.598 E0.71304
G1 X169.355 Y77.503 E0.74961
G1 X167.534 Y79.27 E0.78143
G1 X166.509 Y80.777 E0.80429
G1 X166.072 Y82.708 E0.82911
G1 X166.072 Y87.944 E0.89478
G1 X158.928 Y87.944 E0.98436
G1 X158.928 Y82.653 E1.05072
G1 X158.023 Y79.881 E1.08728
G1 X156.256 Y78.06 E1.1191
G1 X154.749 Y77.035 E1.14196
G1 X152.818 Y76.598 E1.16679
G1 X148.215 Y76.598 E1.22451
G1 X149.38 Y75.984 E1.24102
G1 X151.257 Y74.028 E1.27502
G1 X152.429 Y71.594 E1.3089
G1 X152.802 Y68.948 E1.34241
G1 X152.401 Y66.708 E1.37094
G1 X152.574 Y66.577 E1.37366
G1 X154.348 Y64.518 E1.40775
G1 X154.93 Y62.241 E1.43722
G1 X154.93 Y34.147 E1.78953
G1 X154.025 Y31.375 E1.8261
G1 X152.258 Y29.554 E1.85792
G1 X150.751 Y28.529 E1.88077
G1 X148.82 Y28.092 E1.9056
G1 X137.631 Y28.092 E2.04591
G1 X135.372 Y28.968 E2.0763
G1 X133.375 Y30.391 E2.10705
G1 X132.636 Y31.786 E2.12685
G1 X131.926 Y31.659 E2.13589
G1 X130.922 Y31.802 E2.14861
G1 X129.959 Y30.354 E2.17042
G1 X127.999 Y28.672 E2.2028
G1 X125.708 Y28.092 E2.23244
G1 X108.112 Y28.092 E2.4531
G1 X105.34 Y28.997 E2.48967
G1 X103.519 Y30.764 E2.52149
G1 X102.494 Y32.271 E2.54434
G1 X102.057 Y34.202 E2.56917
G1 X102.057 Y62.803 E2.92784
G1 X102.781 Y64.975 E2.95655
G1 X104.152 Y67.024 E2.98747
G1 X105.442 Y67.786 E3.00626
G1 X105.195 Y69.124 E3.02332
G1 X105.702 Y71.917 E3.05892
G1 X106.875 Y74.115 E3.09016
G1 X108.582 Y75.932 E3.12142
G1 X110.625 Y77.023 E3.15047
G1 X108.994 Y77.884 E3.1736
G1 X107.108 Y79.85 E3.20776
G1 X106.026 Y82.137 E3.23949
G1 X105.565 Y84.691 E3.27203
G1 X105.767 Y85.81 E3.28629
G1 X104.703 Y86.404 E3.30157
G1 X102.833 Y88.587 E3.33762
G1 X102.253 Y90.874 E3.36721
G1 X102.253 Y102.063 E3.50752
G1 X102.983 Y104.253 E3.53647
G1 X104.327 Y106.269 E3.56686
G1 X105.772 Y107.141 E3.58802
G1 X105.567 Y108.263 E3.60232
G1 X105.77 Y109.376 E3.61651
G1 X104.703 Y109.971 E3.63183
G1 X102.833 Y112.154 E3.66788
G1 X102.253 Y114.441 E3.69747
G1 X102.253 Y117.949 E3.74146
G1 X103.154 Y120.726 E3.77807
G1 X105.004 Y122.634 E3.8114
G1 X106.48 Y123.618 E3.83364
G1 X108.346 Y124.028 E3.8576
G1 X140.689 Y124.028 E4.26319
G1 X142.97 Y123.036 E4.29439
G1 X144.566 Y121.784 E4.31982
G1 X145.841 Y119.811 E4.34928
G1 X146.201 Y118.409 E4.36744
G1 X149.737 Y118.415 E4.41178
G1 X180.992 Y118.404 E4.80373
G0 F9000 X180.926 Y118.004
G1 F1035 X149.737 Y118.015 E5.19485
G1 X145.891 Y118.008 E5.24308
G1 X145.471 Y119.647 E5.2643
G1 X144.267 Y121.51 E5.29211
G1 X142.764 Y122.689 E5.31607
G1 X140.605 Y123.628 E5.34559
G1 X108.391 Y123.628 E5.74957
G1 X106.639 Y123.243 E5.77206
G1 X105.259 Y122.323 E5.79286
G1 X103.505 Y120.514 E5.82446
G1 X102.653 Y117.888 E5.85908
G1 X102.653 Y114.492 E5.90167
G1 X103.198 Y112.343 E5.92947
G1 X104.961 Y110.285 E5.96346
G1 X106.215 Y109.586 E5.98146
G1 X105.973 Y108.263 E5.99833
G1 X106.215 Y106.941 E6.01518
G1 X104.611 Y105.973 E6.03867
G1 X103.344 Y104.073 E6.06731
G1 X102.653 Y102 E6.09471
G1 X102.653 Y90.925 E6.2336
G1 X103.198 Y88.776 E6.2614
G1 X104.961 Y86.718 E6.29538
G1 X106.212 Y86.019 E6.31335
G1 X105.972 Y84.691 E6.33028
G1 X106.411 Y82.26 E6.36126
G1 X107.442 Y80.08 E6.3915
G1 X109.238 Y78.208 E6.42403
G1 X111.421 Y77.055 E6.45499
G1 X111.799 Y76.967 E6.45986
G1 X111.149 Y76.849 E6.46814
G1 X108.83 Y75.611 E6.50111
G1 X107.202 Y73.878 E6.53092
G1 X106.085 Y71.785 E6.56068
G1 X105.602 Y69.123 E6.5946
G1 X105.886 Y67.584 E6.61423
G1 X104.433 Y66.726 E6.63539
G1 X103.143 Y64.798 E6.66448
G1 X102.457 Y62.74 E6.69168
G1 X102.457 Y34.246 E7.04901
G1 X102.867 Y32.434 E7.07231
G1 X103.827 Y31.023 E7.09371
G1 X105.553 Y29.348 E7.12387
G1 X108.175 Y28.492 E7.15846
G1 X125.657 Y28.492 E7.37769
G1 X127.809 Y29.037 E7.40553
G1 X129.657 Y30.623 E7.43607
G1 X130.728 Y32.233 E7.46032
G1 X131.918 Y32.064 E7.47539
G1 X132.852 Y32.231 E7.48729
G1 X133.683 Y30.663 E7.50954
G1 X135.563 Y29.323 E7.53849
G1 X137.706 Y28.492 E7.56732
G1 X148.776 Y28.492 E7.70614
G1 X150.588 Y28.902 E7.72944
G1 X151.999 Y29.862 E7.75084
G1 X153.674 Y31.588 E7.781
G1 X154.53 Y34.21 E7.81559
G1 X154.53 Y62.189 E8.16646
G1 X153.983 Y64.329 E8.19415
G1 X152.271 Y66.316 E8.22705
G1 X151.919 Y66.544 E8.23231
G1 X152.005 Y66.766 E8.23529
G1 X152.397 Y68.956 E8.26319
G1 X152.042 Y71.477 E8.29512
G1 X150.925 Y73.796 E8.3274
G1 X149.136 Y75.66 E8.3598
G1 X146.763 Y76.911 E8.39344
G1 X146.156 Y76.998 E8.40113
G1 X152.774 Y76.998 E8.48412
G1 X154.586 Y77.408 E8.50741
G1 X155.997 Y78.368 E8.52882
G1 X157.672 Y80.094 E8.55898
G1 X158.528 Y82.716 E8.59357
G1 X158.528 Y88.344 E8.66414
G1 X166.472 Y88.344 E8.76376
G1 X166.472 Y82.752 E8.83389
G1 X166.882 Y80.94 E8.85719
G1 X167.842 Y79.529 E8.87859
G1 X169.568 Y77.854 E8.90875
G1 X172.19 Y76.998 E8.94334
G1 X180.84 Y76.998 E9.05181
G1 X182.652 Y77.408 E9.07511
G1 X184.063 Y78.368 E9.09651
G1 X185.738 Y80.094 E9.12667
G1 X186.594 Y82.716 E9.16126
G1 X186.594 Y112.268 E9.53186
G1 X186.212 Y113.994 E9.55402
G1 X185.278 Y115.417 E9.57537
G1 X183.488 Y117.153 E9.60664
G1 X180.926 Y118.004 E9.64049
G0 F9000 X180.86 Y117.604
G1 F1035 X183.277 Y116.801 E9.67243
G1 X184.967 Y115.162 E9.70196
G1 X185.837 Y113.837 E9.72183
G1 X186.194 Y112.223 E9.74256
G1 X186.194 Y82.779 E10.1118
G1 X185.387 Y80.307 E10.14441
G1 X183.804 Y78.676 E10.17291
G1 X182.489 Y77.781 E10.19286
G1 X180.796 Y77.398 E10.21463
G1 X172.253 Y77.398 E10.32176
G1 X169.781 Y78.205 E10.35437
G1 X168.15 Y79.788 E10.38288
G1 X167.255 Y81.103 E10.40282
G1 X166.872 Y82.796 E10.42459
G1 X166.872 Y88.744 E10.49918
G1 X158.128 Y88.744 E10.60883
G1 X158.128 Y82.779 E10.68364
G1 X157.321 Y80.307 E10.71625
G1 X155.738 Y78.676 E10.74475
G1 X154.423 Y77.781 E10.7647
G1 X152.73 Y77.398 E10.78646
G1 X144.188 Y77.398 E10.89358
G1 X141.716 Y78.205 E10.92619
G1 X140.381 Y79.501 E10.94953
G1 X140.181 Y79.314 E10.95296
G1 X140.646 Y79.087 E10.95945
G1 X141.946 Y77.732 E10.983
G1 X142.579 Y76.611 E10.99914
G1 X144.087 Y76.89 E11.01837
G1 X146.637 Y76.525 E11.05068
G1 X148.892 Y75.336 E11.08265
G1 X150.594 Y73.563 E11.11347
G1 X151.654 Y71.361 E11.14411
G1 X151.992 Y68.964 E11.17447
G1 X151.611 Y66.836 E11.20158
G1 X151.408 Y66.374 E11.20791
G1 X151.968 Y66.055 E11.21599
G1 X153.618 Y64.14 E11.24769
G1 X154.13 Y62.137 E11.27362
G1 X154.13 Y34.273 E11.62304
G1 X153.323 Y31.801 E11.65565
G1 X151.74 Y30.17 E11.68415
G1 X150.425 Y29.275 E11.7041
G1 X148.732 Y28.892 E11.72587
G1 X137.781 Y28.892 E11.8632
G1 X135.754 Y29.678 E11.89046
G1 X133.991 Y30.935 E11.91761
G1 X133.068 Y32.676 E11.94233
G1 X131.91 Y32.469 E11.95708
G1 X130.491 Y32.67 E11.97505
G1 X130.419 Y32.491 E11.97747
G1 X129.354 Y30.89 E12.00158
G1 X127.62 Y29.402 E12.03024
G1 X125.606 Y28.892 E12.05629
G1 X108.238 Y28.892 E12.27409
G1 X105.766 Y29.699 E12.3067
G1 X104.135 Y31.282 E12.3352
G1 X103.24 Y32.597 E12.35515
G1 X102.857 Y34.29 E12.37692
G1 X102.857 Y62.676 E12.73289
G1 X103.506 Y64.622 E12.75862
G1 X104.714 Y66.427 E12.78585
G1 X106.33 Y67.382 E12.80939
G1 X106.009 Y69.122 E12.83158
G1 X106.468 Y71.653 E12.86384
G1 X107.529 Y73.641 E12.8921
G1 X109.078 Y75.29 E12.92047
G1 X111.281 Y76.466 E12.95178
G1 X113.81 Y76.925 E12.98402
G1 X115.445 Y76.629 E13.00485
G1 X115.791 Y77.21 E13.01333
G1 X115.766 Y77.252 E13.01395
G1 X114.11 Y76.953 E13.03505
G1 X111.608 Y77.409 E13.06694
G1 X109.482 Y78.532 E13.09709
G1 X107.776 Y80.31 E13.12799
G1 X106.796 Y82.383 E13.15675
G1 X106.379 Y84.691 E13.18616
G1 X106.657 Y86.229 E13.20576
G1 X105.219 Y87.032 E13.22641
G1 X103.563 Y88.965 E13.25833
G1 X103.053 Y90.976 E13.28435
G1 X103.053 Y101.937 E13.42181
G1 X103.705 Y103.893 E13.44766
G1 X104.894 Y105.676 E13.47454
G1 X106.658 Y106.74 E13.50037
G1 X106.379 Y108.263 E13.51979
G1 X106.659 Y109.796 E13.53933
G1 X105.219 Y110.599 E13.56001
G1 X103.563 Y112.532 E13.59193
G1 X103.053 Y114.543 E13.61794
G1 X103.053 Y117.827 E13.65913
G1 X103.856 Y120.302 E13.69176
G1 X105.514 Y122.012 E13.72162
G1 X106.798 Y122.868 E13.74098
G1 X108.436 Y123.228 E13.76201
G1 X140.521 Y123.228 E14.16437
G1 X142.558 Y122.342 E14.19222
G1 X143.968 Y121.236 E14.21469
G1 X145.101 Y119.483 E14.24087
G1 X145.52 Y117.848 E14.26204
G1 X145.536 Y117.607 E14.26507
G1 X149.737 Y117.615 E14.31775
G1 X180.86 Y117.604 E14.70804
G0 F9000 X180.794 Y117.204
G1 F1035 X149.737 Y117.215 E15.09751
G1 X145.145 Y117.206 E15.15509
G1 X145.133 Y117.749 E15.1619
G1 X144.731 Y119.319 E15.18223
G1 X143.669 Y120.962 E15.20676
G1 X142.352 Y121.995 E15.22775
G1 X140.437 Y122.828 E15.25394
G1 X108.481 Y122.828 E15.65468
G1 X106.957 Y122.493 E15.67425
G1 X105.769 Y121.701 E15.69215
G1 X104.207 Y120.09 E15.72029
G1 X103.453 Y117.766 E15.75093
G1 X103.453 Y114.594 E15.79071
G1 X103.928 Y112.721 E15.81494
G1 X105.477 Y110.913 E15.8448
G1 X107.104 Y110.005 E15.86816
G1 X106.786 Y108.26 E15.89041
G1 X107.101 Y106.539 E15.91235
G1 X105.177 Y105.379 E15.94052
G1 X104.066 Y103.713 E15.96563
G1 X103.453 Y101.874 E15.98994
G1 X103.453 Y91.027 E16.12597
G1 X103.928 Y89.154 E16.1502
G1 X105.477 Y87.346 E16.18005
G1 X107.102 Y86.438 E16.2034
G1 X106.786 Y84.691 E16.22566
G1 X107.181 Y82.506 E16.25351
G1 X108.11 Y80.54 E16.28077
G1 X109.726 Y78.856 E16.31004
G1 X111.74 Y77.792 E16.33861
G1 X114.111 Y77.36 E16.36883
G1 X115.966 Y77.695 E16.39247
G1 X116.258 Y77.211 E16.39956
G1 X115.647 Y76.186 E16.41452
G1 X113.81 Y76.518 E16.43793
G1 X111.413 Y76.083 E16.46848
G1 X109.326 Y74.969 E16.49815
G1 X107.856 Y73.404 E16.52507
G1 X106.851 Y71.521 E16.55184
G1 X106.416 Y69.12 E16.58244
G1 X106.773 Y67.18 E16.60718
G1 X104.996 Y66.129 E16.63307
G1 X103.868 Y64.444 E16.6585
G1 X103.257 Y62.612 E16.68271
G1 X103.257 Y34.334 E17.03733
G1 X103.613 Y32.76 E17.05757
G1 X104.443 Y31.541 E17.07606
G1 X105.979 Y30.05 E17.10291
G1 X108.301 Y29.292 E17.13354
G1 X125.555 Y29.292 E17.34991
G1 X127.43 Y29.767 E17.37416
G1 X129.052 Y31.159 E17.40097
G1 X130.086 Y32.713 E17.42438
G1 X130.21 Y33.114 E17.42964
G1 X131.902 Y32.874 E17.45107
G1 X133.284 Y33.121 E17.46868
G1 X134.299 Y31.207 E17.49584
G1 X135.945 Y30.033 E17.5212
G1 X137.856 Y29.292 E17.5469
G1 X148.688 Y29.292 E17.68274
G1 X150.262 Y29.648 E17.70298
G1 X151.481 Y30.478 E17.72147
G1 X152.972 Y32.014 E17.74831
G1 X153.73 Y34.336 E17.77894
G1 X153.73 Y62.085 E18.12693
G1 X153.253 Y63.951 E18.15108
G1 X151.711 Y65.741 E18.18071
G1 X150.888 Y66.21 E18.19259
G1 X151.217 Y66.907 E18.20225
G1 X151.587 Y68.973 E18.22857
G1 X151.267 Y71.244 E18.25733
G1 X150.262 Y73.331 E18.28638
G1 X148.648 Y75.012 E18.31561
G1 X146.511 Y76.139 E18.3459
G1 X144.094 Y76.485 E18.37652
G1 X142.371 Y76.166 E18.3985
G1 X141.625 Y77.489 E18.41754
G1 X140.357 Y78.81 E18.44051
G1 X139.453 Y79.18 E18.45275
G1 X140.232 Y79.909 E18.46613
G1 X140.351 Y80.088 E18.46883
G1 X141.929 Y78.556 E18.49641
G1 X144.251 Y77.798 E18.52704
G1 X152.686 Y77.798 E18.63282
G1 X154.26 Y78.154 E18.65306
G1 X155.479 Y78.984 E18.67155
G1 X156.97 Y80.52 E18.69839
G1 X157.728 Y82.842 E18.72903
G1 X157.728 Y89.144 E18.80805
G1 X167.272 Y89.144 E18.92774
G1 X167.272 Y82.84 E19.00679
G1 X167.628 Y81.266 E19.02703
G1 X168.458 Y80.047 E19.04553
G1 X169.994 Y78.556 E19.07237
G1 X172.316 Y77.798 E19.103
G1 X180.752 Y77.798 E19.20879
G1 X182.326 Y78.154 E19.22903
G1 X183.545 Y78.984 E19.24752
G1 X185.036 Y80.52 E19.27437
G1 X185.794 Y82.842 E19.305
G1 X185.794 Y112.178 E19.67288
G1 X185.462 Y113.68 E19.69217
G1 X184.656 Y114.907 E19.71058
G1 X183.066 Y116.449 E19.73836
G1 X180.794 Y117.204 E19.76838
G0 F9000 X180.728 Y116.804
G1 F1035 X149.737 Y116.815 E20.15702
G1 X144.745 Y116.805 E20.21962
G1 X144.745 Y117.65 E20.23022
G1 X144.359 Y119.158 E20.24974
G1 X143.37 Y120.688 E20.27259
G1 X142.146 Y121.648 E20.29209
G1 X140.353 Y122.428 E20.31661
G1 X108.526 Y122.428 E20.71574
G1 X107.116 Y122.118 E20.73384
G1 X106.024 Y121.39 E20.7503
G1 X104.558 Y119.878 E20.77671
G1 X103.853 Y117.705 E20.80536
G1 X103.853 Y114.645 E20.84373
G1 X104.293 Y112.91 E20.86618
G1 X105.735 Y111.227 E20.89397
G1 X107.549 Y110.214 E20.92002
G1 X107.193 Y108.257 E20.94497
G1 X107.556 Y106.271 E20.97029
G1 X107.314 Y106.2 E20.97345
G1 X105.46 Y105.082 E21.0006
G1 X104.427 Y103.533 E21.02395
G1 X103.853 Y101.811 E21.04671
G1 X103.853 Y91.078 E21.18131
G1 X104.293 Y89.343 E21.20375
G1 X105.735 Y87.66 E21.23155
G1 X107.547 Y86.647 E21.25758
G1 X107.193 Y84.691 E21.28251
G1 X107.566 Y82.629 E21.30878
G1 X108.444 Y80.77 E21.33457
G1 X109.97 Y79.18 E21.3622
G1 X111.872 Y78.175 E21.38918
G1 X114.112 Y77.767 E21.41773
G1 X116.214 Y78.147 E21.44452
G1 X116.279 Y77.951 E21.44711
G1 X116.725 Y77.212 E21.45793
G1 X116.08 Y76.131 E21.47372
G1 X115.957 Y75.724 E21.47905
G1 X113.81 Y76.111 E21.50641
G1 X111.545 Y75.7 E21.53528
G1 X109.574 Y74.648 E21.56329
G1 X108.183 Y73.167 E21.58877
G1 X107.234 Y71.389 E21.61405
G1 X106.823 Y69.118 E21.64299
G1 X107.217 Y66.978 E21.67028
G1 X105.278 Y65.831 E21.69853
G1 X104.23 Y64.266 E21.72215
G1 X103.657 Y62.548 E21.74486
G1 X103.657 Y34.378 E22.09812
G1 X103.986 Y32.923 E22.11683
G1 X104.751 Y31.8 E22.13387
G1 X106.192 Y30.401 E22.15905
G1 X108.364 Y29.692 E22.18771
G1 X125.504 Y29.692 E22.40265
G1 X127.24 Y30.132 E22.42511
G1 X128.75 Y31.428 E22.45006
G1 X129.753 Y32.935 E22.47276
G1 X129.91 Y33.56 E22.48084
G1 X131.894 Y33.279 E22.50597
G1 X133.571 Y33.579 E22.52734
G1 X133.646 Y33.287 E22.53112
G1 X134.608 Y31.478 E22.55681
G1 X136.136 Y30.388 E22.58035
G1 X137.931 Y29.692 E22.60449
G1 X148.644 Y29.692 E22.73884
G1 X150.099 Y30.021 E22.75754
G1 X151.222 Y30.786 E22.77458
G1 X152.621 Y32.227 E22.79977
G1 X153.33 Y34.399 E22.82842
G1 X153.33 Y62.033 E23.17496
G1 X152.888 Y63.762 E23.19734
G1 X151.452 Y65.429 E23.22493
G1 X150.368 Y66.047 E23.24058
G1 X150.833 Y67.031 E23.25423
G1 X151.182 Y68.981 E23.27907
G1 X150.879 Y71.128 E23.30626
G1 X149.931 Y73.098 E23.33368
G1 X148.404 Y74.688 E23.36132
G1 X146.385 Y75.753 E23.38995
G1 X144.101 Y76.08 E23.41888
G1 X142.163 Y75.721 E23.4436
G1 X141.302 Y77.247 E23.46557
G1 X140.126 Y78.472 E23.48687
G1 X138.725 Y79.046 E23.50585
G1 X139.959 Y80.201 E23.52705
G1 X140.316 Y80.872 E23.53658
G1 X140.704 Y80.303 E23.54522
G1 X142.142 Y78.907 E23.57035
G1 X144.314 Y78.198 E23.599
G1 X152.642 Y78.198 E23.70344
G1 X154.097 Y78.527 E23.72215
G1 X155.22 Y79.292 E23.73919
G1 X156.619 Y80.733 E23.76437
G1 X157.328 Y82.905 E23.79302
G1 X157.328 Y89.544 E23.87628
G1 X167.672 Y89.544 E24.006
G1 X167.672 Y82.884 E24.08952
G1 X168.001 Y81.429 E24.10822
G1 X168.766 Y80.306 E24.12526
G1 X170.207 Y78.907 E24.15045
